docs/svg/logos/hootsuite-horizontal-white.svg

<?xml version="1.0" encoding="UTF-8"?>
<svg width="350px" height="77px" viewBox="0 0 350 77" version="1.1" xmlns="http://www.w3.org/2000/svg" xmlns:xlink="http://www.w3.org/1999/xlink">
    <!-- Generator: Sketch 48.1 (47250) - http://www.bohemiancoding.com/sketch -->
    <title>hootsuite-horizontal-white</title>
    <desc>Created with Sketch.</desc>
    <defs>
        <polygon id="path-1" points="0 0.263725 349.051133 0.263725 349.051133 77 0 77"></polygon>
    </defs>
    <g id="Page-1" stroke="none" stroke-width="1" fill="none" fill-rule="evenodd">
        <g id="hootsuite-horizontal-white">
            <polyline id="Fill-1" fill="#FFFFFE" points="83.8056657 14.1141 83.8056657 30.2042125 99.8045326 30.2042125 99.8045326 14.1141 109.494476 14.1141 109.494476 55.8259625 99.8045326 55.8259625 99.8045326 38.4316625 83.8056657 38.4316625 83.8056657 55.8259625 74.1167139 55.8259625 74.1167139 14.1141 83.8056657 14.1141"></polyline>
            <path d="M129.142068,56.5016375 C120.026204,56.5016375 113.014306,50.687175 113.014306,40.912025 C113.014306,31.1339875 119.643484,24.8835125 129.714164,24.8835125 C139.212748,24.8835125 145.58711,31.2552625 145.58711,40.4163375 C145.58711,51.4273375 137.493484,56.5016375 129.203541,56.5016375 L129.142068,56.5016375 Z M129.331445,49.76125 C133.15864,49.76125 135.517422,46.1076 135.517422,40.661775 C135.517422,36.203475 133.727762,31.6267875 129.331445,31.6267875 C124.741785,31.6267875 122.959065,36.203475 122.959065,40.7262625 C122.959065,45.8602375 125.189943,49.76125 129.267989,49.76125 L129.331445,49.76125 Z" id="Fill-2" fill="#FFFFFE"></path>
            <path d="M164.963031,56.5016375 C155.847167,56.5016375 148.838244,50.687175 148.838244,40.912025 C148.838244,31.1339875 155.467422,24.8835125 165.539093,24.8835125 C175.037677,24.8835125 181.413031,31.2552625 181.413031,40.4163375 C181.413031,51.4273375 173.314448,56.5016375 165.027479,56.5016375 L164.963031,56.5016375 Z M165.154391,49.76125 C168.981586,49.76125 171.340368,46.1076 171.340368,40.661775 C171.340368,36.203475 169.550708,31.6267875 165.154391,31.6267875 C160.564731,31.6267875 158.782011,36.203475 158.782011,40.7262625 C158.782011,45.8602375 161.010907,49.76125 165.092918,49.76125 L165.154391,49.76125 Z" id="Fill-3" fill="#FFFFFE"></path>
            <path d="M184.952691,32.4930375 L184.952691,44.931425 C184.952691,49.2020375 185.848017,52.1107125 187.63272,53.9009625 C189.224079,55.45155 191.837677,56.5016375 194.961898,56.5016375 C197.638952,56.5016375 199.994759,56.131075 201.208357,55.6969875 L201.142918,48.5802625 C200.25255,48.7689125 199.615014,48.8305125 198.276487,48.8305125 C195.410057,48.8305125 194.451275,47.1576875 194.451275,43.5059625 L194.451275,32.4930375 L201.402691,32.4930375 L201.402691,25.562075 L194.451275,25.562075 L194.451275,19.710075 L194.414589,19.7302875 L194.414589,16.3923375 C189.194334,16.3923375 184.959632,20.4897 184.959632,25.562075 L184.952691,25.562075 L184.952691,32.4930375" id="Fill-4" fill="#FFFFFE"></path>
            <path d="M284.198017,32.4930375 L284.198017,44.931425 C284.198017,49.2020375 285.092351,52.1107125 286.875071,53.9009625 C288.468414,55.45155 291.080028,56.5016375 294.203258,56.5016375 C296.881303,56.5016375 299.240085,56.131075 300.453683,55.6969875 L300.387252,48.5802625 C299.496884,48.7689125 298.857365,48.8305125 297.518839,48.8305125 C294.652408,48.8305125 293.695609,47.1576875 293.695609,43.5059625 L293.695609,32.4930375 L300.644051,32.4930375 L300.644051,25.562075 L293.695609,25.562075 L293.695609,19.710075 L293.659915,19.7302875 L293.659915,16.3923375 C288.438669,16.3923375 284.203966,20.4897 284.203966,25.562075 L284.198017,25.562075 L284.198017,32.4930375" id="Fill-5" fill="#FFFFFE"></path>
            <path d="M206.5,47.6524125 C208.284703,48.704425 211.980028,49.8806 214.853399,49.8806 C217.783286,49.8806 218.993909,48.9517875 218.993909,47.406975 C218.993909,45.79575 218.038102,45.0536625 214.467705,43.8774875 C207.965439,41.839875 205.477762,38.3700625 205.543201,34.844425 C205.543201,29.1512375 210.513598,24.8815875 218.229462,24.8815875 C221.863314,24.8815875 225.048017,25.7478375 226.960623,26.67665 L225.305807,33.111925 C223.90085,32.4314375 221.159348,31.441025 218.545751,31.441025 C216.188952,31.441025 214.853399,32.3679125 214.853399,33.85305 C214.853399,35.3381875 216.06204,36.0822 219.887252,37.3844625 C225.813456,39.2979125 228.237677,42.2662625 228.302125,46.6629625 C228.302125,52.35615 223.775921,56.5016375 214.853399,56.5016375 C210.770397,56.5016375 207.137535,55.5737875 204.778754,54.3360125 L206.5,47.6524125" id="Fill-6" fill="#FFFFFE"></path>
            <path d="M261.330028,46.1076 C261.330028,50.0682875 261.461898,53.284 261.586827,55.823075 L253.172946,55.823075 L252.725779,51.553425 L252.535411,51.553425 C251.323796,53.4100875 248.393909,56.5016375 242.783994,56.5016375 C236.406657,56.5016375 231.816997,52.6670375 231.816997,43.3202 L231.816997,25.562075 L241.505949,25.562075 L241.505949,41.839875 C241.505949,46.2308 242.975354,48.8882625 246.414873,48.8882625 C249.089943,48.8882625 250.684278,47.095125 251.257365,45.6080625 C251.515156,45.0536625 251.640085,44.3751 251.640085,43.568525 L251.640085,25.562075 L261.330028,25.562075 L261.330028,46.1076" id="Fill-7" fill="#FFFFFE"></path>
            <polygon id="Fill-8" fill="#FFFFFE" points="267.960198 55.8259625 277.652125 55.8259625 277.652125 25.5649625 267.960198 25.5649625"></polygon>
            <path d="M272.743201,21.60235 C269.492068,21.60235 267.388102,19.3741625 267.388102,16.58965 C267.388102,13.7396875 269.556516,11.5759875 272.86813,11.5759875 C276.183711,11.5759875 278.225212,13.7396875 278.286686,16.58965 C278.286686,19.3741625 276.183711,21.60235 272.804674,21.60235 L272.743201,21.60235" id="Fill-9" fill="#FFFFFE"></path>
            <path d="M312.852408,43.630125 C313.17068,47.5927375 317.120822,49.447475 321.65,49.447475 C324.964589,49.447475 327.641643,49.016275 330.255241,48.150025 L331.532295,54.5237 C328.340652,55.823075 324.451983,56.4400375 320.245042,56.4400375 C309.664731,56.4400375 303.60864,50.5014125 303.60864,40.969775 C303.60864,33.2957625 308.579037,24.8171 319.356657,24.8171 C329.426346,24.8171 333.249575,32.4333625 333.249575,39.9196875 C333.249575,41.524175 333.058215,42.9515625 332.932295,43.691725 L312.852408,43.630125 Z M324.263598,37.1938875 C324.263598,34.9685875 323.243343,31.067575 318.842068,31.067575 C314.700567,31.067575 313.043768,34.7183375 312.788952,37.1938875 L324.263598,37.1938875 Z" id="Fill-10" fill="#FFFFFE"></path>
            <path d="M38.0845609,27.987575 C34.1304533,27.97795 30.9338527,24.857525 30.9457507,21.0181125 C30.9477337,20.3039375 31.0617564,19.6128625 31.2709632,18.9651 C31.826204,20.1749625 33.0725212,21.0238875 34.5270538,21.0277375 C36.5031161,21.0335125 38.1103399,19.482925 38.1143059,17.5646625 C38.1192635,16.152675 37.2516997,14.9408875 36.0063739,14.393225 C36.6756374,14.193025 37.3885269,14.08715 38.1252125,14.089075 C42.0783286,14.100625 45.2769122,17.2200875 45.2660057,21.0595 C45.2521246,24.89795 42.0376771,28.0000875 38.0845609,27.987575 Z M16.6066572,27.929825 C12.6545326,27.918275 9.45594901,24.7988125 9.46883853,20.961325 C9.47875354,17.1219125 12.6981586,14.01785 16.6502833,14.0294 C17.3859773,14.0322875 18.0958924,14.1420125 18.7651558,14.3441375 C17.517847,14.8841 16.6453258,16.091075 16.6413598,17.504025 C16.6354108,19.4222875 18.2307365,20.9834625 20.2077904,20.9892375 C21.6613314,20.9930875 22.9116147,20.1518625 23.475779,18.9429625 C23.6800283,19.59265 23.790085,20.283725 23.788102,20.999825 C23.7752125,24.8373125 20.5617564,27.941375 16.6066572,27.929825 Z M38.1351275,10.61445 C32.53017,10.5980875 27.9177054,14.762825 27.4179887,20.0825625 L27.3703966,20.018075 L27.3228045,20.0825625 C26.8528329,14.758975 22.2671388,10.570175 16.6592068,10.5538125 C10.7280453,10.5364875 5.90835694,15.1921 5.89249292,20.9488125 C5.87464589,26.7084125 10.6665722,31.3880875 16.5977337,31.4034875 C18.7066572,31.410225 20.6708215,30.817325 22.3325779,29.7999625 L27.325779,34.675025 L32.3477337,29.8288375 C34.0055241,30.8529375 35.9627479,31.456425 38.0736544,31.4631625 C44.0067989,31.48145 48.8264873,26.824875 48.8443343,21.069125 C48.8611898,15.31145 44.068272,10.62985 38.1351275,10.61445 Z" id="Fill-11" fill="#FFFFFE"></path>
            <g id="Group-15">
                <mask id="mask-2" fill="white">
                    <use xlink:href="#path-1"></use>
                </mask>
                <g id="Clip-13"></g>
                <path d="M342.353541,30.6277125 L343.174504,30.6277125 C343.580028,30.6277125 343.905241,30.5256875 344.151133,30.3216375 C344.397025,30.1175875 344.519972,29.8577125 344.519972,29.542975 C344.519972,29.1743375 344.411898,28.90965 344.193768,28.749875 C343.975637,28.5901 343.630595,28.50925 343.159632,28.50925 L342.353541,28.50925 L342.353541,30.6277125 Z M345.653258,29.5131375 C345.653258,29.9068 345.545184,30.255225 345.330028,30.55745 C345.114873,30.8606375 344.811473,31.0858625 344.421813,31.233125 L346.231303,34.1485375 L344.953258,34.1485375 L343.379745,31.53535 L342.353541,31.53535 L342.353541,34.1485375 L341.228187,34.1485375 L341.228187,27.5727375 L343.213173,27.5727375 C344.053966,27.5727375 344.67068,27.7325125 345.064306,28.0520625 C345.456941,28.3716125 345.653258,28.8596 345.653258,29.5131375 Z M338.415297,30.8567875 C338.415297,31.7076375 338.636402,32.503625 339.076629,33.2437875 C339.517847,33.9849125 340.119688,34.567225 340.883144,34.9936125 C341.645609,35.4190375 342.462606,35.63175 343.334136,35.63175 C344.216572,35.63175 345.034561,35.418075 345.790085,34.9897625 C346.544618,34.56145 347.144476,33.982025 347.587677,33.2514875 C348.030878,32.52095 348.252975,31.7230375 348.252975,30.8567875 C348.252975,30.0001625 348.032861,29.2061 347.591643,28.472675 C347.150425,27.73925 346.553541,27.1579 345.800992,26.7276625 C345.048442,26.2964625 344.226487,26.081825 343.334136,26.081825 C342.452691,26.081825 341.633711,26.2955 340.879178,26.7238125 C340.123654,27.152125 339.523796,27.73155 339.080595,28.461125 C338.637394,29.192625 338.415297,29.9905375 338.415297,30.8567875 Z M337.617139,30.8567875 C337.617139,29.87215 337.870963,28.950075 338.37762,28.0886375 C338.884278,27.2281625 339.581303,26.5496 340.468697,26.0519875 C341.355099,25.5553375 342.309915,25.3070125 343.334136,25.3070125 C344.348442,25.3070125 345.2983,25.5534125 346.185694,26.0442875 C347.072096,26.536125 347.771105,27.213725 348.283711,28.0742 C348.795326,28.9356375 349.051133,29.862525 349.051133,30.8567875 C349.051133,31.826025 348.805241,32.7355875 348.314448,33.5874 C347.822663,34.43825 347.132578,35.1197 346.246176,35.63175 C345.358782,36.1428375 344.389093,36.3988625 343.334136,36.3988625 C342.285127,36.3988625 341.316431,36.1438 340.430028,35.6356 C339.542635,35.125475 338.85255,34.44595 338.358782,33.5941375 C337.865014,32.7432875 337.617139,31.8308375 337.617139,30.8567875 Z" id="Fill-12" fill="#FFFFFE" mask="url(#mask-2)"></path>
                <path d="M27.0461756,0.263725 L27.0451841,0.263725 C22.6915014,0.263725 18.3992918,1.2868625 14.5542493,3.232075 C10.7518414,1.330175 6.51713881,0.3301375 2.23286119,0.329175 L2.15155807,0.3301375 L2.71050543e-20,0.3359125 L2.71050543e-20,26.5832875 C-0.0396600567,40.0323 5.35212465,52.6862875 15.1818697,62.2073375 C24.9868272,71.7052875 38.0330028,76.9566875 51.9160057,76.994225 L54.0794618,77 L54.0794618,0.3359125 L51.9279037,0.3301375 L51.8466006,0.329175 C47.5613314,0.329175 43.3266289,1.3292125 39.5252125,3.232075 C35.705949,1.299375 31.4434844,0.2762375 27.1195467,0.263725 L27.0461756,0.263725 Z M27.0451841,2.358125 C27.0679887,2.358125 27.0907932,2.358125 27.1135977,2.358125 C31.6358357,2.3716 35.8705382,3.5602875 39.5192635,5.619075 C43.1531161,3.5910875 47.3600567,2.423575 51.8466006,2.423575 C51.8723796,2.423575 51.8971671,2.423575 51.9219547,2.423575 L51.9219547,74.899825 C24.4424929,74.8257125 2.07818697,53.28015 2.15750708,26.5832875 L2.15750708,2.423575 C2.18229462,2.423575 2.20708215,2.423575 2.23286119,2.423575 C6.7194051,2.423575 10.9243626,3.5910875 14.5601983,5.619075 C18.2327195,3.547775 22.4932011,2.358125 27.0451841,2.358125 Z" id="Fill-14" fill="#FFFFFE" mask="url(#mask-2)"></path>
            </g>
            <path d="M37.7058074,28.426475 C33.7764873,28.414925 30.5987252,25.315675 30.6116147,21.5012875 C30.6126062,20.7890375 30.7256374,20.1037375 30.9338527,19.4579 C31.486119,20.66295 32.7235127,21.5051375 34.1691218,21.5089875 C36.1342776,21.5147625 37.7305949,19.9738 37.7365439,18.0670875 C37.7395184,16.6628 36.8788952,15.4587125 35.6415014,14.9149 C36.3067989,14.7175875 37.0147309,14.61075 37.7464589,14.6136375 C41.675779,14.624225 44.8545326,17.7263625 44.8416431,21.5378625 C44.8307365,25.354175 41.6331445,28.4370625 37.7058074,28.426475 Z M16.3607649,28.368725 C12.4324363,28.3581375 9.25467422,25.2550375 9.26558074,21.44065 C9.27747875,17.627225 12.4730878,14.543375 16.4024079,14.553 C17.134136,14.5558875 17.8410765,14.666575 18.5043909,14.8687 C17.2669972,15.4048125 16.3994334,16.60505 16.3934844,18.0074125 C16.3885269,19.9150875 17.9729462,21.465675 19.938102,21.469525 C21.383711,21.4743375 22.6270538,20.637925 23.1872521,19.4357625 C23.3905099,20.0825625 23.4975921,20.77075 23.4966006,21.4801125 C23.4866856,25.2954625 20.290085,28.380275 16.3607649,28.368725 Z M37.7563739,11.159225 C32.1851275,11.1447875 27.6033994,15.2816125 27.1056657,20.568625 L27.0580737,20.507025 L27.0094901,20.568625 C26.5434844,15.278725 21.9855524,11.1159125 16.4123229,11.1005125 C10.5188385,11.08415 5.72790368,15.709925 5.71104816,21.4300625 C5.69320113,27.1530875 10.4573654,31.8038875 16.3498584,31.82025 C18.4478754,31.826025 20.3991501,31.2360125 22.0509915,30.2253875 L27.0144476,35.0725375 L32.0056657,30.255225 C33.6515581,31.27355 35.5978754,31.87415 37.6939093,31.879925 C43.5903683,31.8962875 48.3813031,27.271475 48.3981586,21.5474875 C48.4150142,15.8283125 43.6518414,11.17655 37.7563739,11.159225 Z" id="Fill-16" fill="#FFFFFE"></path>
        </g>
    </g>
</svg>

<svg width="350" height="77" xmlns="http://www.w3.org/2000/svg" xmlns:xlink="http://www.w3.org/1999/xlink"><defs><path id="a" d="M0 .264h349.051V77H0z"/></defs><g fill="none" fill-rule="evenodd"><path fill="#FFFFFE" d="M83.806 14.114v16.09h15.999v-16.09h9.69v41.712h-9.69V38.432h-16v17.394h-9.688V14.114h9.689M129.142 56.502c-9.116 0-16.128-5.815-16.128-15.59 0-9.778 6.63-16.028 16.7-16.028 9.499 0 15.873 6.371 15.873 15.532 0 11.011-8.094 16.086-16.383 16.086h-.062zm.19-6.74c3.827 0 6.185-3.654 6.185-9.1 0-4.459-1.79-9.035-6.186-9.035-4.59 0-6.372 4.576-6.372 9.1 0 5.133 2.23 9.034 6.309 9.034h.063zM164.963 56.502c-9.116 0-16.125-5.815-16.125-15.59 0-9.778 6.63-16.028 16.701-16.028 9.499 0 15.874 6.371 15.874 15.532 0 11.011-8.099 16.086-16.386 16.086h-.064zm.191-6.74c3.828 0 6.186-3.654 6.186-9.1 0-4.459-1.79-9.035-6.186-9.035-4.59 0-6.372 4.576-6.372 9.1 0 5.133 2.229 9.034 6.31 9.034h.062zM184.953 32.493v12.438c0 4.271.895 7.18 2.68 8.97 1.591 1.55 4.205 2.6 7.329 2.6 2.677 0 5.033-.37 6.246-.804l-.065-7.117c-.89.189-1.528.25-2.867.25-2.866 0-3.825-1.672-3.825-5.324V32.493h6.952v-6.93h-6.952V19.71l-.036.02v-3.338c-5.22 0-9.455 4.098-9.455 9.17h-.007v6.931M284.198 32.493v12.438c0 4.271.894 7.18 2.677 8.97 1.593 1.55 4.205 2.6 7.328 2.6 2.678 0 5.037-.37 6.25-.804l-.066-7.117c-.89.189-1.53.25-2.868.25-2.867 0-3.823-1.672-3.823-5.324V32.493h6.948v-6.93h-6.948V19.71l-.036.02v-3.338c-5.221 0-9.456 4.098-9.456 9.17h-.006v6.931M206.5 47.652c1.785 1.052 5.48 2.229 8.353 2.229 2.93 0 4.14-.93 4.14-2.474 0-1.611-.955-2.353-4.525-3.53-6.503-2.037-8.99-5.507-8.925-9.033 0-5.693 4.97-9.962 12.686-9.962 3.634 0 6.819.866 8.732 1.795l-1.655 6.435c-1.405-.68-4.147-1.671-6.76-1.671-2.357 0-3.693.927-3.693 2.412 0 1.485 1.209 2.23 5.034 3.531 5.926 1.914 8.35 4.882 8.415 9.279 0 5.693-4.526 9.839-13.449 9.839-4.083 0-7.715-.928-10.074-2.166l1.721-6.684M261.33 46.108c0 3.96.132 7.176.257 9.715h-8.414l-.447-4.27h-.19c-1.212 1.857-4.142 4.949-9.752 4.949-6.377 0-10.967-3.835-10.967-13.182V25.562h9.689V41.84c0 4.39 1.47 7.048 4.909 7.048 2.675 0 4.27-1.793 4.842-3.28.258-.554.383-1.233.383-2.04V25.563h9.69v20.546M267.96 55.826h9.692V25.565h-9.692zM272.743 21.602c-3.25 0-5.355-2.228-5.355-5.012 0-2.85 2.169-5.014 5.48-5.014 3.316 0 5.357 2.164 5.419 5.014 0 2.784-2.103 5.012-5.482 5.012h-.062M312.852 43.63c.319 3.963 4.269 5.817 8.798 5.817 3.315 0 5.992-.43 8.605-1.297l1.277 6.374c-3.191 1.3-7.08 1.916-11.287 1.916-10.58 0-16.636-5.939-16.636-15.47 0-7.674 4.97-16.153 15.748-16.153 10.07 0 13.893 7.616 13.893 15.103 0 1.604-.192 3.032-.318 3.772l-20.08-.062zm11.412-6.436c0-2.225-1.02-6.126-5.422-6.126-4.141 0-5.798 3.65-6.053 6.126h11.475zM38.085 27.988c-3.955-.01-7.151-3.13-7.14-6.97a6.736 6.736 0 0 1 .326-2.053 3.581 3.581 0 0 0 3.256 2.063c1.976.006 3.583-1.545 3.587-3.463.005-1.412-.862-2.624-2.108-3.172.67-.2 1.383-.306 2.12-.304 3.952.012 7.15 3.131 7.14 6.97-.014 3.839-3.228 6.941-7.181 6.929zm-21.478-.058c-3.952-.012-7.151-3.131-7.138-6.969.01-3.84 3.23-6.943 7.181-6.932a7.405 7.405 0 0 1 2.115.315c-1.247.54-2.12 1.747-2.124 3.16-.006 1.918 1.59 3.48 3.567 3.485a3.584 3.584 0 0 0 3.268-2.046c.204.65.314 1.34.312 2.057-.013 3.837-3.226 6.941-7.181 6.93zm21.528-17.316c-5.605-.016-10.217 4.149-10.717 9.469l-.048-.065-.047.065c-.47-5.324-5.056-9.513-10.664-9.53-5.931-.017-10.75 4.64-10.767 10.396-.017 5.76 4.775 10.44 10.706 10.454a10.884 10.884 0 0 0 5.735-1.603l4.993 4.875 5.022-4.846a10.921 10.921 0 0 0 5.726 1.634c5.933.018 10.752-4.638 10.77-10.394.017-5.758-4.776-10.44-10.709-10.455z"/><mask id="b" fill="#fff"><use xlink:href="#a"/></mask><path d="M342.354 30.628h.82c.406 0 .731-.102.977-.306a.968.968 0 0 0 .369-.779c0-.369-.108-.633-.326-.793-.218-.16-.563-.24-1.034-.24h-.806v2.118zm3.3-1.115c0 .394-.109.742-.324 1.044a1.904 1.904 0 0 1-.908.676l1.81 2.916h-1.279l-1.573-2.614h-1.026v2.614h-1.126v-6.576h1.985c.841 0 1.458.16 1.851.48.393.319.59.807.59 1.46zm-7.239 1.344c0 .85.221 1.647.662 2.387a4.767 4.767 0 0 0 1.806 1.75c.763.425 1.58.638 2.451.638.883 0 1.7-.214 2.456-.642a4.887 4.887 0 0 0 1.798-1.739 4.53 4.53 0 0 0 .665-2.394c0-.857-.22-1.65-.661-2.384a4.878 4.878 0 0 0-1.791-1.745 4.874 4.874 0 0 0-2.467-.646c-.881 0-1.7.213-2.455.642a4.888 4.888 0 0 0-1.798 1.737 4.536 4.536 0 0 0-.666 2.396zm-.798 0c0-.985.254-1.907.76-2.768a5.502 5.502 0 0 1 2.092-2.037 5.766 5.766 0 0 1 2.865-.745c1.014 0 1.964.246 2.852.737a5.51 5.51 0 0 1 2.098 2.03c.511.862.767 1.789.767 2.783a5.38 5.38 0 0 1-.737 2.73 5.535 5.535 0 0 1-2.068 2.045 5.73 5.73 0 0 1-2.912.767 5.74 5.74 0 0 1-2.904-.763 5.522 5.522 0 0 1-2.071-2.042 5.365 5.365 0 0 1-.742-2.737zM27.046.264a27.711 27.711 0 0 0-12.492 2.968A27.609 27.609 0 0 0 2.233.33L2.152.33 0 .336v26.247c-.04 13.45 5.352 26.103 15.182 35.624 9.805 9.498 22.851 14.75 36.734 14.787l2.163.006V.336L51.928.33h-.081c-4.286 0-8.52 1-12.322 2.902A27.697 27.697 0 0 0 27.12.264h-.074zm0 2.094h.068A25.331 25.331 0 0 1 39.519 5.62a25.23 25.23 0 0 1 12.328-3.195h.075V74.9c-27.48-.074-49.844-21.62-49.764-48.317V2.423h.075c4.486 0 8.691 1.168 12.327 3.196a25.339 25.339 0 0 1 12.485-3.26z" fill="#FFFFFE" mask="url(#b)"/><path d="M37.706 28.426c-3.93-.011-7.107-3.11-7.094-6.925a6.673 6.673 0 0 1 .322-2.043 3.555 3.555 0 0 0 3.235 2.051c1.965.006 3.562-1.535 3.568-3.442.003-1.404-.858-2.608-2.095-3.152a7.298 7.298 0 0 1 2.104-.301c3.93.01 7.109 3.112 7.096 6.924-.011 3.816-3.209 6.9-7.136 6.888zM16.36 28.37c-3.929-.01-7.106-3.114-7.095-6.928.011-3.814 3.207-6.898 7.136-6.888a7.306 7.306 0 0 1 2.102.316c-1.237.536-2.105 1.736-2.11 3.138-.005 1.908 1.579 3.459 3.544 3.463a3.56 3.56 0 0 0 3.25-2.034c.203.647.31 1.335.309 2.044-.01 3.815-3.207 6.9-7.136 6.889zm21.395-17.21c-5.57-.014-10.153 4.123-10.65 9.41l-.048-.062-.049.062c-.466-5.29-5.023-9.453-10.597-9.468-5.893-.017-10.684 4.609-10.701 10.33-.018 5.722 4.746 10.373 10.639 10.39 2.098.005 4.05-.585 5.701-1.596l4.963 4.848 4.992-4.818a10.833 10.833 0 0 0 5.688 1.625c5.896.016 10.687-4.609 10.704-10.333.017-5.719-4.746-10.37-10.642-10.388z" fill="#FFFFFE"/></g></svg>
